X:1
T:How Good and Pleasant Is the Sight
T:Text: Psalm 133; vers. Psalter, 1912, alt. Tune: Charles H. Gabriel, 1856-1932
T:886 D PRESSLY www.hymnary.org/text/how_good_and_pleasant_is_the_sight_when
T:How Good and Pleasant Is the Sight
T:This hymn is in the public domain. You may freely use this score for personal and congregational worship. If you reproduce the score, please credit Hymnary.org as the source. 
T:This hymn is in the public domain. You may freely use this score for personal and congregational worship. If you reproduce the score, please credit Hymnary.org as the source. 
Z:This hymn is in the public domain. You may freely use this score for personal and congregational worship. If you reproduce the score, please credit Hymnary.org as the source.
%%score ( 1 2 ) ( 3 4 )
L:1/8
M:4/4
K:F
V:1 treble nm="SOPRANO ALTO" snm="S. A."
V:2 treble 
V:3 bass nm="TENOR BASS" snm="T. B."
V:4 bass 
V:1
"^1""^2" F2 | A3 A AF dc | c6 A2 | c3 B | GG AB | A6 c2 | d3 d c2 =B2 | c6 | c2 | c3 A dc BA | %10
w: How|good and pleas- ant is the|sight when|Chris- tians|make it their de-|light to|live in blest ac-|cord;|such|love is like a- noint- ing|
w: Such|love in peace and joy dis-|tills, as|if from|heights of Her- mon's|hills re-|fresh- ing dew de-|scends.|The|Lord com- mands his bless- ing|
 B6 B2 | B3 G |1 cB AG | A6 F2 | G3 G F2 E2 | F6 x2 |] %16
w: oil that|con- se-|crates for ho- ly|toil the|ser- vants of the|Lord.|
w: there, and|they that|walk in love shall|share in|life that nev- er|ends.|
V:2
 F2 | F3 F FF FF | F6 F2 | E3 G | EE FG | F6 F2 | F3 F E2 D2 | E6 | E2 | F3 F ^FA GF | G6 G2 | %11
 G3 G |1 EG FE | F6 F2 | D3 D C2 C2 | C6 x2 |] %16
V:3
 A,2 | C3 C CA, B,A, | A,6 C2 | C3 C | CC CC | C6 A,2 | A,3 A, G,2 G,2 | G,6 | B,2 | A,3 C CD DD | %10
 D6 D2 | C3 C |1 CC CC | C6 C2 | B,3 B, A,2 G,2 | A,6 x2 |] %16
V:4
 F,2 | F,3 F, F,F, F,F, | F,6 F,2 | C,3 C, | C,C, C,C, | F,6 F,2 | D,3 D, G,2 G,2 | C,6 | C,2 | %9
 F,3 F, D,D, D,D, | G,6 F,2 | E,3 E, |1 C,C, C,C, | F,6 A,,2 | B,,3 B,, C,2 C,2 | F,,6 x2 |] %16

